X:1
T:Title
%%score 1 { 2 | 3 }
L:1/8
Q:1/4=103
M:4/4
K:G
V:1 treble nm="Grand Piano, Soprano"
V:2 bass nm="Choir Pad, Glory in My Soul"
V:3 bass 
V:1
 [DG]2 [DG]2 [DG]>[DA] [GB]>[Gc] | [Gd]4 [GB]4 | [FA]2 [FA]2 [FA]>[Ac] [GB]>[FA] | [GB]6 z2 | %4
w: By~William~James~Kirkpatrick * * * * *||||
 [DG]2 [DG]2 [DG]>[DA] [GB]>[Gc] | [Gd]4 [GB]2 [GB]>[GB] | [FA]2 [Fd]2 [Ed]2 [G^c]2 | %7
w: |||
 [Fd]6 [Fe]>[Fd] | [Gd]4 [GB]2 [Ge]2 | [Gd]>[Gd] [Bd]>[Ac] [GB]2 [Gd]>[Gd] | [Fc]4 [FA]2 [Ac]2 | %11
w: ||||
 [GB]>[GB] [GB]>[Ac] [Bd]2 D>D | E>D E>F G>F G>[FA] | [GB]>[FA] [GB]>[Ac] [Bd]2 [Ge]2 | %14
w: |||
 [Gd] [GB]3 [GB]2 [GA]2 | [DG]8 |] %16
w: ||
V:2
 B,2 B,2 B,>C D>[K:treble]D | B,4 D4 | D2 D2 D>D D>D | D6 z2 | B,2 B,2 B,>C D>[K:treble]D | %5
 B,4 D2 D>D | D2 D2[K:bass] A,2 A,2 | A,6 C>C | B,4[K:treble] D2 C2 | B,>B, D>D D2[K:bass] B,>B, | %10
 A,4 D2 D2 | D>D D>D D2[K:bass] D,>D, | E,>D, E,>F, G,>F, G,>[K:treble]D | D>D D>D D2 C2 | %14
 B, D3 D2 C2 | B,8 |] %16
V:3
 G,2 G,2 G,>G, G,>G, | G,4 G,4 | D,2 D,2 D,>D, D,>D, | G,6 z2 | G,2 G,2 G,>G, G,>G, | %5
 G,4 G,2 G,>G, | A,2 A,2 z4 | D,6 D,>D, | G,4 G,2 G,2 | G,>G, G,>G, G,2 G,>G, | D,4 D,2 D,2 | %11
 G,>G, G,>G, G,2 z2 | z4 z2 z z/ D,/ | G,>G, G,>G, G,2 C,2 | D, D,3 D,2 D,2 | G,,8 |] %16

